icons/svg/functional-icons/hazard_flood.svg

<?xml version="1.0" encoding="UTF-8" standalone="no"?>
<svg
   xmlns:dc="http://purl.org/dc/elements/1.1/"
   xmlns:cc="http://creativecommons.org/ns#"
   xmlns:rdf="http://www.w3.org/1999/02/22-rdf-syntax-ns#"
   xmlns:svg="http://www.w3.org/2000/svg"
   xmlns="http://www.w3.org/2000/svg"
   xmlns:sodipodi="http://sodipodi.sourceforge.net/DTD/sodipodi-0.dtd"
   xmlns:inkscape="http://www.inkscape.org/namespaces/inkscape"
   width="580"
   height="580"
   id="svg2"
   version="1.1"
   inkscape:version="0.91 r13725"
   sodipodi:docname="hazard_flood.svg">
  <defs
     id="defs13" />
  <sodipodi:namedview
     pagecolor="#ffffff"
     bordercolor="#666666"
     borderopacity="1"
     objecttolerance="10"
     gridtolerance="10"
     guidetolerance="10"
     inkscape:pageopacity="0"
     inkscape:pageshadow="2"
     inkscape:window-width="1920"
     inkscape:window-height="1006"
     id="namedview11"
     showgrid="false"
     inkscape:zoom="0.81379307"
     inkscape:cx="188.74899"
     inkscape:cy="288.97799"
     inkscape:window-x="1920"
     inkscape:window-y="0"
     inkscape:window-maximized="1"
     inkscape:current-layer="svg2"
     inkscape:snap-center="true"
     inkscape:snap-object-midpoints="true" />
  <metadata
     id="metadata2975">image/svg+xmlen<rdf:RDF>
  <cc:Work
     rdf:about="">
    <dc:format>image/svg+xml</dc:format>
    <dc:type
       rdf:resource="http://purl.org/dc/dcmitype/StillImage" />
    <dc:title />
  </cc:Work>
</rdf:RDF>
</metadata>
  <g
     id="g5"
     transform="matrix(1.7470777,0,0,1.7471252,-216.65253,-222.73058)"
     style="fill:#000000;fill-opacity:1;stroke:none">
    <title
       id="title7">Layer 1</title>
    <g
       id="g1327"
       style="fill:#000000;fill-opacity:1;stroke:none" />
    <path
       style="fill:#000000;fill-opacity:1;fill-rule:evenodd;stroke:none"
       d="M 288.21875,150.3811 A 32.25812,32.25812 0 0 0 262,166.47485 l -122.9375,212.875 a 32.25812,32.25812 0 0 0 27.90625,48.375 l 246,0.1875 a 32.25812,32.25812 0 0 0 27.96875,-48.375 L 317.875,166.47485 A 32.25812,32.25812 0 0 0 288.21875,150.3811 Z"
       id="path2990"
       inkscape:connector-curvature="0" />
  </g>
  <path
     style="color:#000000;display:inline;overflow:visible;visibility:visible;fill:#fff200;fill-opacity:1;fill-rule:nonzero;stroke:none;marker:none;enable-background:accumulate"
     d="M 74.866653,471.02372 C 70.661784,463.90823 75.540059,450.183 75.540059,450.183 L 275.74202,103.38966 c 0,0 8.67708,-17.018819 16.87775,-16.960807 8.20067,0.05801 17.57483,18.168297 17.57483,18.168297 l 197.82527,342.67643 c 0,0 7.43258,15.49307 3.20786,23.08346 -4.22471,7.59039 -16.38682,8.02322 -16.38682,8.02322 L 94.366758,477.96464 c 0,0 -15.295235,0.17457 -19.500105,-6.94092 z"
     id="path3788"
     inkscape:connector-curvature="0"
     sodipodi:nodetypes="zcczcczccz" />
  <path
     style="fill:none;stroke:#000000;stroke-width:15.54772663;stroke-linecap:round;stroke-linejoin:round;stroke-miterlimit:10"
     d="M 198.37211,317.68731 290,240.1718 l 91.62789,77.51551"
     id="polyline3"
     inkscape:connector-curvature="0"
     sodipodi:nodetypes="ccc" />
  <path
     inkscape:connector-curvature="0"
     d="m 289.99998,266.89662 -76.35659,62.24417 0,63.74419 c 0,8.39922 6.61665,8.11831 15.01588,8.11831 l 30.54261,0 c 0,-18.32559 0.25546,-68.83705 0.25546,-68.83705 l 61.08527,0 c 0,0 -0.25546,50.51146 -0.25546,68.83705 l 30.54265,0 c 8.39921,0 15.52676,0.28091 15.52676,-8.11831 l 0,-63.74419 z"
     id="path5"
     sodipodi:nodetypes="ccssccccsscc" />
  <path
     style="fill:#000000"
     d="m 191.87439,364.83605 c -12.65985,9.1557 -30.93707,11.76035 -42.19025,11.76035 -0.18228,0 -0.33498,-7e-5 -0.51451,0 l -12.86288,22.34467 c 3.98333,0.13666 8.07858,1.24954 13.37739,1.24954 23.91303,0 33.75038,-5.22059 42.19025,-11.76035 8.46982,6.12542 19.39125,9.28526 29.10687,10.73132 l 0,-23.52071 c -9.71562,-1.44605 -20.63705,-4.67942 -29.10687,-10.80482 z m 199.70544,0.36751 c -12.65983,9.15569 -30.93708,11.76035 -42.19025,11.76035 1.61799,9.82074 -2.6886,7.87782 0,23.5942 11.25317,0 29.53042,-2.60463 42.19025,-11.76035 12.65985,9.15572 31.01058,11.76035 42.26375,11.76035 4.70443,0 8.35378,-0.98695 11.90735,-2.05806 l -12.42186,-21.53614 c -11.28933,-0.0731 -29.26787,-2.73374 -41.74924,-11.76035 z"
     id="path3"
     inkscape:connector-curvature="0" />
  <path
     style="fill:#000000"
     d="m 163.09995,419.39047 c -12.80062,8.95717 -31.33526,11.57725 -42.71356,11.57725 -0.50779,0 -0.95203,9.1e-4 -1.43815,0 l -12.51207,21.71631 c 4.17313,0.054 8.38693,1.29436 13.95022,1.29436 24.17887,0 34.17981,-5.10737 42.71356,-11.50533 12.80057,8.95717 31.26336,11.50533 42.64164,11.50533 11.37828,0 29.84106,-2.54816 42.64164,-11.50533 12.80057,8.95717 31.33524,11.50533 42.71354,11.50533 11.3783,0 29.84109,-2.54816 42.64164,-11.50533 12.8006,8.95717 31.26333,11.50533 42.64164,11.50533 11.37825,0 29.91299,-2.54816 42.71354,-11.50533 12.80057,8.95717 31.26338,11.50533 42.64164,11.50533 5.37216,0 9.48548,-1.16843 13.51878,-2.37297 l -11.9368,-20.7096 c -0.5153,0.0235 -1.04227,0.0718 -1.58198,0.0718 -11.37826,0 -29.84107,-2.62009 -42.64164,-11.57724 -12.80055,8.95715 -31.33529,11.57724 -42.71354,11.57724 -11.37831,0 -29.84104,-2.62009 -42.64164,-11.57724 -12.80055,8.95715 -31.26334,11.57724 -42.64164,11.57724 -11.3783,0 -29.91297,-2.62009 -42.71354,-11.57724 -12.80058,8.95715 -31.26336,11.57724 -42.64164,11.57724 -11.37828,0 -29.84107,-2.62009 -42.64164,-11.57724 z"
     id="path3-8"
     inkscape:connector-curvature="0" />
  <path
     inkscape:connector-curvature="0"
     style="fill:#000000"
     d="m 289.80229,368.33715 c -13.08433,9.15569 -32.02981,11.83386 -43.6603,11.83386 -0.51905,0 -12.89544,-0.90226 -13.39236,-0.90319 l -30.85347,14.5204 c 12.12352,8.63572 38.55923,9.90348 44.24583,9.90348 24.7148,0 34.93741,-5.22058 43.6603,-11.76034 13.0843,9.15571 31.95632,11.76034 43.58679,11.76034 65.8693,-4.25084 56.5575,-23.90469 0,-23.52081 -11.63047,0 -30.50249,-2.67816 -43.58679,-11.83385 z"
     id="path3-8-6"
     sodipodi:nodetypes="csccsccccc" />
</svg>

<svg width="580" height="580" viewBox="0 0 580 580" fill="none" xmlns="http://www.w3.org/2000/svg">
<path fill-rule="evenodd" clip-rule="evenodd" d="M286.888 40.0039C277.515 40.5055 268.416 43.3401 260.417 48.2504C252.418 53.1607 245.772 59.9912 241.082 68.1217L26.3004 440.041C21.3615 448.604 18.7618 458.316 18.7622 468.201C18.7626 478.087 21.3631 487.798 26.3026 496.361C31.2422 504.924 38.347 512.037 46.9041 516.986C55.4613 521.935 65.1696 524.547 75.0548 524.558L504.836 524.886C514.73 524.894 524.453 522.296 533.025 517.355C541.597 512.413 548.718 505.302 553.67 496.736C558.622 488.17 561.232 478.451 561.238 468.556C561.243 458.662 558.643 448.94 553.7 440.369L338.7 68.1217C333.501 59.1088 325.908 51.7111 316.763 46.7483C307.618 41.7854 297.278 39.4511 286.888 40.0039V40.0039Z" fill="black"/>
<path d="M74.8666 471.024C70.6618 463.908 75.54 450.183 75.54 450.183L275.742 103.39C275.742 103.39 284.419 86.3708 292.62 86.4289C300.82 86.4869 310.195 104.597 310.195 104.597L508.02 447.274C508.02 447.274 515.452 462.767 511.228 470.357C507.003 477.947 494.841 478.38 494.841 478.38L94.3667 477.965C94.3667 477.965 79.0715 478.139 74.8666 471.024V471.024Z" fill="#FFF200"/>
<path d="M198.372 317.687L290 240.172L381.628 317.687" stroke="black" stroke-width="15.5477" stroke-miterlimit="10" stroke-linecap="round" stroke-linejoin="round"/>
<path d="M290 266.896L213.644 329.141V392.885C213.644 401.284 220.26 401.003 228.659 401.003H259.202C259.202 382.678 259.458 332.166 259.458 332.166H320.543C320.543 332.166 320.287 382.678 320.287 401.003H350.83C359.229 401.003 366.357 401.284 366.357 392.885V329.141L290 266.896Z" fill="black"/>
<path d="M191.874 364.836C179.214 373.992 160.937 376.596 149.684 376.596C149.502 376.596 149.349 376.596 149.17 376.596L136.307 398.941C140.29 399.078 144.385 400.19 149.684 400.19C173.597 400.19 183.434 394.97 191.874 388.43C200.344 394.556 211.266 397.715 220.981 399.161V375.641C211.266 374.195 200.344 370.961 191.874 364.836ZM391.58 365.203C378.92 374.359 360.643 376.964 349.389 376.964C351.007 386.785 346.701 384.842 349.389 400.558C360.643 400.558 378.92 397.953 391.58 388.798C404.24 397.953 422.59 400.558 433.843 400.558C438.548 400.558 442.197 399.571 445.751 398.5L433.329 376.964C422.04 376.891 404.061 374.23 391.58 365.203V365.203Z" fill="black"/>
<path d="M163.1 419.391C150.299 428.348 131.765 430.968 120.386 430.968C119.878 430.968 119.434 430.969 118.948 430.968L106.436 452.684C110.609 452.738 114.823 453.979 120.386 453.979C144.565 453.979 154.566 448.871 163.1 442.473C175.9 451.43 194.363 453.979 205.741 453.979C217.12 453.979 235.583 451.43 248.383 442.473C261.184 451.43 279.718 453.979 291.097 453.979C302.475 453.979 320.938 451.43 333.738 442.473C346.539 451.43 365.002 453.979 376.38 453.979C387.758 453.979 406.293 451.43 419.093 442.473C431.894 451.43 450.357 453.979 461.735 453.979C467.107 453.979 471.221 452.81 475.254 451.606L463.317 430.896C462.802 430.92 462.275 430.968 461.735 430.968C450.357 430.968 431.894 428.348 419.093 419.391C406.293 428.348 387.758 430.968 376.38 430.968C365.002 430.968 346.539 428.348 333.738 419.391C320.938 428.348 302.475 430.968 291.097 430.968C279.718 430.968 261.184 428.348 248.383 419.391C235.583 428.348 217.12 430.968 205.741 430.968C194.363 430.968 175.9 428.348 163.1 419.391V419.391Z" fill="black"/>
<path d="M289.802 368.337C276.718 377.493 257.772 380.171 246.142 380.171C245.623 380.171 233.246 379.269 232.749 379.268L201.896 393.788C214.02 402.424 240.455 403.692 246.142 403.692C270.857 403.692 281.079 398.471 289.802 391.931C302.886 401.087 321.758 403.692 333.389 403.692C399.258 399.441 389.946 379.787 333.389 380.171C321.758 380.171 302.886 377.493 289.802 368.337V368.337Z" fill="black"/>
</svg>
